packages/foundations/assets/icons/functional/images/maps/navigation_u_turn.svg

<svg xmlns="http://www.w3.org/2000/svg" width="32" height="32" fill="none"><path fill="#1A1C1F" fill-rule="evenodd" d="M12.704 4.053a5.9 5.9 0 0 0-1.851.586c-1.691.834-2.848 2.333-3.232 4.188-.091.439-.1.772-.1 3.943-.001 3.408.001 3.467.111 3.694.191.396.732.631 1.14.496.213-.07.526-.319.63-.501.048-.083.073-1.016.095-3.606.035-3.908.026-3.811.426-4.613.419-.839.974-1.388 1.837-1.817.575-.286 1.052-.394 1.733-.394 1.811 0 3.243 1.061 3.848 2.851l.126.373.014 7.654.015 7.653-1.695-1.691q-1.693-1.69-1.893-1.773c-.763-.318-1.58.361-1.371 1.14.059.222.301.481 2.711 2.903 1.787 1.796 2.715 2.692 2.859 2.759a.89.89 0 0 0 .8 0c.263-.124 5.433-5.291 5.517-5.515a1.4 1.4 0 0 0-.001-.766c-.184-.486-.808-.732-1.318-.522-.133.055-.756.639-1.892 1.773l-1.693 1.691v-7.348c0-4.861-.019-7.522-.057-7.86a6.03 6.03 0 0 0-2.979-4.547 6.7 6.7 0 0 0-1.737-.67c-.51-.105-1.575-.147-2.043-.081"/></svg>

<svg width="32" height="32" viewBox="0 0 32 32" fill="none" xmlns="http://www.w3.org/2000/svg"><path d="M12.704 4.053 C 12.061 4.144,11.489 4.325,10.853 4.639 C 9.162 5.473,8.005 6.972,7.621 8.827 C 7.530 9.266,7.521 9.599,7.521 12.770 C 7.520 16.178,7.522 16.237,7.632 16.464 C 7.823 16.860,8.364 17.095,8.772 16.960 C 8.985 16.890,9.298 16.641,9.402 16.459 C 9.450 16.376,9.475 15.443,9.497 12.853 C 9.532 8.945,9.523 9.042,9.923 8.240 C 10.342 7.401,10.897 6.852,11.760 6.423 C 12.335 6.137,12.812 6.029,13.493 6.029 C 15.304 6.029,16.736 7.090,17.341 8.880 L 17.467 9.253 17.481 16.907 L 17.496 24.560 15.801 22.869 C 14.672 21.742,14.041 21.151,13.908 21.096 C 13.145 20.778,12.328 21.457,12.537 22.236 C 12.596 22.458,12.838 22.717,15.248 25.139 C 17.035 26.935,17.963 27.831,18.107 27.898 C 18.378 28.025,18.636 28.025,18.907 27.898 C 19.170 27.774,24.340 22.607,24.424 22.383 C 24.496 22.190,24.496 21.809,24.423 21.617 C 24.239 21.131,23.615 20.885,23.105 21.095 C 22.972 21.150,22.349 21.734,21.213 22.868 L 19.520 24.559 19.520 17.211 C 19.520 12.350,19.501 9.689,19.463 9.351 C 19.251 7.452,18.149 5.770,16.484 4.804 C 16.006 4.526,15.261 4.239,14.747 4.134 C 14.237 4.029,13.172 3.987,12.704 4.053 " fill="#1A1C1F" stroke="none" fill-rule="evenodd"></path></svg>
